build/assets/images/bk-nosotros.svg

<svg width="1366" height="172" viewBox="0 0 1366 172" fill="none" xmlns="http://www.w3.org/2000/svg">
<path d="M155.771 170.339V2.91343H116.067V106.239L38.8121 2.91343H1.2608V170.339H41.2039V67.2529L118.22 170.339H155.771Z" stroke="#DDE4E9"/>
<path d="M268.696 1.47836C217.033 1.47836 178.286 37.5945 178.286 86.3873C178.286 135.419 217.033 172.253 268.696 172.253C320.598 172.253 359.345 135.18 359.345 86.3873C359.345 37.8337 320.598 1.47836 268.696 1.47836ZM269.174 37.1162C295.006 37.1162 315.575 58.4032 315.575 86.6264C315.575 114.85 295.006 136.615 269.174 136.615C243.582 136.615 221.817 114.85 221.817 86.6264C221.817 58.4032 243.343 37.1162 269.174 37.1162Z" stroke="#DDE4E9"/>
<path d="M446.093 1C405.91 1 379.361 20.6127 379.361 51.467C379.361 110.784 467.858 93.0843 467.858 122.743C467.858 132.31 459.487 137.333 446.093 137.333C428.632 137.333 402.801 127.287 385.58 112.219L369.077 144.986C388.929 161.251 417.63 171.775 445.614 171.775C482.926 171.775 512.585 154.075 512.585 120.59C512.585 60.0775 424.088 76.5809 424.088 47.6401C424.088 39.508 431.503 35.4419 442.505 35.4419C456.138 35.4419 478.382 42.6173 496.081 52.9021L512.106 19.656C494.885 8.41457 470.25 1 446.093 1Z" stroke="#DDE4E9"/>
<path d="M615.086 1.47836C563.423 1.47836 524.676 37.5945 524.676 86.3873C524.676 135.419 563.423 172.253 615.086 172.253C666.988 172.253 705.736 135.18 705.736 86.3873C705.736 37.8337 666.988 1.47836 615.086 1.47836ZM615.565 37.1162C641.396 37.1162 661.966 58.4032 661.966 86.6264C661.966 114.85 641.396 136.615 615.565 136.615C589.972 136.615 568.207 114.85 568.207 86.6264C568.207 58.4032 589.733 37.1162 615.565 37.1162Z" stroke="#DDE4E9"/>
<path d="M850.499 37.1162V2.67425H707.47V37.1162H757.458V170.339H800.032V37.1162H850.499Z" stroke="#DDE4E9"/>
<path d="M969.689 170.339H1018L982.844 115.089C1002.46 105.282 1013.22 86.8656 1013.22 61.2734C1013.22 23.9613 987.867 2.91343 943.619 2.91343H868.755V170.339H911.329V123.221H943.619H944.815L969.689 170.339ZM911.329 89.7358V36.3986H943.619C962.036 36.3986 972.799 45.2483 972.799 62.7084C972.799 80.4078 962.036 89.7358 943.619 89.7358H911.329Z" stroke="#DDE4E9"/>
<path d="M1121.24 1.47836C1069.58 1.47836 1030.83 37.5945 1030.83 86.3873C1030.83 135.419 1069.58 172.253 1121.24 172.253C1173.14 172.253 1211.89 135.18 1211.89 86.3873C1211.89 37.8337 1173.14 1.47836 1121.24 1.47836ZM1121.72 37.1162C1147.55 37.1162 1168.12 58.4032 1168.12 86.6264C1168.12 114.85 1147.55 136.615 1121.72 136.615C1096.13 136.615 1074.36 114.85 1074.36 86.6264C1074.36 58.4032 1095.89 37.1162 1121.72 37.1162Z" stroke="#DDE4E9"/>
<path d="M1298.64 1C1258.46 1 1231.91 20.6127 1231.91 51.467C1231.91 110.784 1320.4 93.0843 1320.4 122.743C1320.4 132.31 1312.03 137.333 1298.64 137.333C1281.18 137.333 1255.35 127.287 1238.13 112.219L1221.62 144.986C1241.47 161.251 1270.18 171.775 1298.16 171.775C1335.47 171.775 1365.13 154.075 1365.13 120.59C1365.13 60.0775 1276.63 76.5809 1276.63 47.6401C1276.63 39.508 1284.05 35.4419 1295.05 35.4419C1308.68 35.4419 1330.93 42.6173 1348.63 52.9021L1364.65 19.656C1347.43 8.41457 1322.8 1 1298.64 1Z" stroke="#DDE4E9"/>
</svg>

<svg width="1366" height="172" fill="none" xmlns="http://www.w3.org/2000/svg"><path d="M155.771 170.339V2.913h-39.704V106.24L38.812 2.913H1.261V170.34h39.943V67.253l77.016 103.086h37.551zM268.696 1.478c-51.663 0-90.41 36.116-90.41 84.91 0 49.031 38.747 85.865 90.41 85.865 51.902 0 90.649-37.073 90.649-85.866 0-48.553-38.747-84.909-90.649-84.909zm.478 35.638c25.832 0 46.401 21.287 46.401 49.51 0 28.224-20.569 49.989-46.401 49.989-25.592 0-47.357-21.765-47.357-49.989 0-28.223 21.526-49.51 47.357-49.51zM446.093 1c-40.183 0-66.732 19.613-66.732 50.467 0 59.317 88.497 41.617 88.497 71.276 0 9.567-8.371 14.59-21.765 14.59-17.461 0-43.292-10.046-60.513-25.114l-16.503 32.767c19.852 16.265 48.553 26.789 76.537 26.789 37.312 0 66.971-17.7 66.971-51.185 0-60.513-88.497-44.01-88.497-72.95 0-8.132 7.415-12.198 18.417-12.198 13.633 0 35.877 7.175 53.576 17.46l16.025-33.246C494.885 8.415 470.25 1 446.093 1zm168.993.478c-51.663 0-90.41 36.116-90.41 84.91 0 49.031 38.747 85.865 90.41 85.865 51.902 0 90.65-37.073 90.65-85.866 0-48.553-38.748-84.909-90.65-84.909zm.479 35.638c25.831 0 46.401 21.287 46.401 49.51 0 28.224-20.57 49.989-46.401 49.989-25.593 0-47.358-21.765-47.358-49.989 0-28.223 21.526-49.51 47.358-49.51zm234.934 0V2.674H707.47v34.442h49.988V170.34h42.574V37.116h50.467zm119.19 133.223H1018l-35.156-55.25c19.616-9.807 30.376-28.223 30.376-53.816 0-37.312-25.353-58.36-69.601-58.36h-74.864V170.34h42.574v-47.118h33.486l24.874 47.118zm-58.36-80.603V36.399h32.29c18.417 0 29.18 8.85 29.18 26.31 0 17.699-10.763 27.027-29.18 27.027h-32.29zM1121.24 1.478c-51.66 0-90.41 36.116-90.41 84.91 0 49.031 38.75 85.865 90.41 85.865 51.9 0 90.65-37.073 90.65-85.866 0-48.553-38.75-84.909-90.65-84.909zm.48 35.638c25.83 0 46.4 21.287 46.4 49.51 0 28.224-20.57 49.989-46.4 49.989-25.59 0-47.36-21.765-47.36-49.989 0-28.223 21.53-49.51 47.36-49.51zM1298.64 1c-40.18 0-66.73 19.613-66.73 50.467 0 59.317 88.49 41.617 88.49 71.276 0 9.567-8.37 14.59-21.76 14.59-17.46 0-43.29-10.046-60.51-25.114l-16.51 32.767c19.85 16.265 48.56 26.789 76.54 26.789 37.31 0 66.97-17.7 66.97-51.185 0-60.513-88.5-44.01-88.5-72.95 0-8.132 7.42-12.198 18.42-12.198 13.63 0 35.88 7.175 53.58 17.46l16.02-33.246C1347.43 8.415 1322.8 1 1298.64 1z" stroke="#DDE4E9"/></svg>
